X: 38481
T: Steampacket, The
R: reel
M: 4/4
K: Gmajor
BGG/G/G AGFG|AGG/G/G A2dc|BGG/G/G AGFD|EFFG ABcA|
BGG/G/G AGFG|AGG/G/G A2dc|BGG/G/G AGFD|EFFG ABcA||
dgg/g/g agfe|dgg/g/g fdcA|dgg/g/g agfe|d^cde fdcA|
dgg/g/g agfg|abag fefg|afge fde^c|d/d/deg fdcA||

